X:1
T:C Major Timothy Swan, 1801
T:Adapted from Isaac Watts, 1719 (Psalm 115)             10 10. 10 10. 10 10.
T:Burwick
T:Transcribed from Swan's New England Harmony, 1801.
%%score [ 1 2 3 4 ]
L:1/8
Q:1/4=150
M:3/2
K:C
V:1 treble nm="Treble" snm="Tr."
V:2 treble-8 nm="Tenor" snm="T."
V:3 bass nm="Bass\nI" snm="B.\nI"
V:4 bass nm="Bass\nII" snm="B.\nII"
V:1
 c4 | (c3 d e4) (d2 f2) | (e4 d4) c4 | (d3 e f4) (e2 d2) | e8 c4 | c8 (3(d2 e2 f2) | e8 (c2 e2) | %7
 (g4 f4) e4 |{e} d8 d4 | (B4 G4) g4 | e8 e4 | %11
"^1. heav'n   –   ly          lays             Tell  the  loud  wonders he hath done,     Tell the loud wonders he hath done." (d2 e2 g2 e2) (d2 c2) | %12
 (c4 B4) z4 | (a2 g2) (g2 f2) (f2 e2) | (e4 d2) d2 d2 d2 | G8 z4 | (c2 e2) e4 e4 | %17
 (e4 g2) g2 d2 d2 | c12 |] %19
V:2
"^2. Sing  how         he        left     the    worlds    of     light,  And  the  bright  robes  he      wore   a  – bove;  How swift and joy–ful""^1. Now  for            a           tune   of     lof      –      ty    praise  To  great  Je    –    ho – vah's   e  – qual     Son!   A – wake, my voice, in" c4 | %1
 (e3 d c4) (B2 A2) | G8 g4 | (f3 e d4) (c2 B2) | c8 e4 | e8 (3(f2 e2 d2) | c8 (c2 A2) | %7
 (G4 d4) c4 | B8 G4 | d8 d4 | c8 c4 | %11
"^2.  was           his      flight,           On   wings   of     ev–er–las–ting  love,          On  wings of   ev–er–las–ting  love!" (g2 f2 e4) (f2 e2) | %12
 (e4 d4) z4 | e4 d4 c4 | (c4 B2) G2 G2 B2 | c8 z4 | g4 e4 c4 | g4 G4 G2 G2 | G12 |] %19
V:3
"^3. Down    to          this       base,   this  sin    –     ful   earth,   He  came  to       raise  our      na – ture   high;  He  came  t'a – tone al –" C,4 | %1
 C,8 D,4 | (E,4 G,4) C,4 | D,8 (E,2 G,2) | C8 C,4 | C8 B,4 | A,8 A,4 | G,8 C4 | G,8 G,4 | G,8 G,4 | %10
 C8 C,4 | %11
"^3.  –migh   –   ty        wrath;          Je  –  sus,     the    God, was born to die,         Je  – sus,  the God, was born to die." E,8 F,4 | %12
 G,8 z4 | C4 G,4 C4 | C,4 G,4 G,2 G,2 | C,8 z4 | C4 C4 C4 | E,4 C,4 G,2 G,2 | C,12 |] %19
V:4
"^4. Hell    and        its        li   –   ons   roared      a – round,  His  pre–cious   blood   the   monsters  spilt;  While weighty sorrows" C,4 | %1
 A,,8 G,,4 | C,8 C,4 | D,8 C,4 | C,8 C,4 | C,8 D,4 | A,,8 A,,4 | (E,4 D,4) C,4 | G,,8 G,,4 | %9
 G,,8 G,,4 | C,8 C,4 | %11
"^4.  pressed    him      down,         Large  as      the      loads of all our guilt,        Large as  the loads of  all our guilt." C,8 D,4 | %12
"^5. Deep in the shades of gloomy death\nTh'al–migh–ty Captive prisoner lay,\nTh' almighty Captive left the earth,\nAnd rose to everlasting day." G,,8 z4 | %13
 C,4 C,4 C,4 | %14
 A,,4"^6. Lift up your eyes, ye sons of light,\nUp to his throne of shining grace;\nSee what immortal glories sit\nRound the sweet beauties of his face!" G,,4 G,,2 G,,2 | %15
 C,8 z4 | C,4 C,4 C,4 | C,4 G,4 G,,2 G,,2 | %18
"^7. Among a thousand harps and songs,\nJesus, the God, exalted reigns;\nHis sacred name fills all their tongues,\nAnd echoes through the heav'nly plains." C,12 |] %19

